icons/op-link-24.svg

<svg width="24" height="24" viewBox="0 0 24 24" fill="none" xmlns="http://www.w3.org/2000/svg">
<path d="M9.5 13.5455H6.5C5.9375 13.5455 5.5 13.0909 5.5 12.5758V11.4242C5.5 10.9091 5.9375 10.4545 6.5 10.4545H9.5C9.875 10.4545 10.1562 10.6667 10.3438 10.9394H11.9375C11.7188 9.84848 10.7188 9 9.5 9H6.5C5.125 9 4 10.0909 4 11.4242V12.5758C4 13.9091 5.125 15 6.5 15H9.5C10.75 15 11.8125 14.0606 11.9688 12.8788H10.4375C10.2812 13.2727 9.9375 13.5455 9.5 13.5455ZM17.5 9H14.5C13.2812 9 12.2812 9.84848 12.0625 10.9394H13.6562C13.8438 10.6667 14.125 10.4545 14.5 10.4545H17.5C18.0625 10.4545 18.5 10.9091 18.5 11.4242V12.3939C18.5 12.9394 18.0625 13.3636 17.5 13.3636H14.5C14.125 13.3636 13.8438 13.1818 13.6562 12.8788H12.0625C12.2812 14 13.2812 14.8182 14.5 14.8182H17.5C18.875 14.8182 20 13.7273 20 12.3939V11.4242C20 10.0909 18.875 9 17.5 9ZM14.5625 12.8788C15.0938 12.8788 15.5 12.4545 15.5 11.9091C15.5 11.3939 15.0938 10.9394 14.5625 10.9394H9.40625C8.90625 10.9394 8.5 11.3939 8.5 11.9091C8.5 12.4545 8.9375 12.8788 9.46875 12.8788H14.5625Z" fill="black"/>
</svg>

<svg xmlns="http://www.w3.org/2000/svg" width="24" height="24" viewBox="0 0 24 24"><path d="M9.5 13.546h-3c-.562 0-1-.455-1-.97v-1.152c0-.515.438-.97 1-.97h3c.375 0 .656.213.844.485h1.594C11.719 9.848 10.719 9 9.5 9h-3C5.125 9 4 10.091 4 11.424v1.152C4 13.909 5.125 15 6.5 15h3c1.25 0 2.312-.939 2.469-2.121h-1.531c-.157.394-.5.667-.938.667ZM17.5 9h-3c-1.219 0-2.219.848-2.438 1.939h1.594c.188-.272.469-.485.844-.485h3c.562 0 1 .455 1 .97v.97c0 .545-.438.97-1 .97h-3c-.375 0-.656-.182-.844-.485h-1.594c.219 1.121 1.219 1.939 2.438 1.939h3c1.375 0 2.5-1.091 2.5-2.424v-.97C20 10.091 18.875 9 17.5 9Zm-2.938 3.879c.532 0 .938-.425.938-.97 0-.515-.406-.97-.938-.97H9.406c-.5 0-.906.455-.906.97 0 .545.438.97.969.97h5.093Z"/></svg>
